X: 340
T: Knutsford Races
%R: hornpipe, strathspey
Z: 2014 John Chambers <jc:trillian.mit.edu>
B: Preston "Twenty four Country Dances for the Year 1798" p.150 #2
F: http://www.vwml.org/browse/browse-collections-dance-tune-books/browse-prestons1798# 2014-8-10
N: The rhythms at strain boundaries don't work; not fixed.
M: C|
L: 1/8
K: A
|:\
[A2E2A,2]c>A e>Ac>A | E>Ac>A B2Bc |\
A/A/A c>A e>Ac>A | F>dc>B A3 :|
|: (ef/g/) |\
a>ef>d ecBA | a>ef>b g2 (ef/g/) |\
a>ef>d ecBA | F>dc>B A3 :|
|:\
A>ETF>E A>ETF>E | DFCE B,2B,2 |\
A>ETF>E A>EF>E | F>dc>B A3 :|
|:\
c>dec a>ce>c | fdec B2Bd |\
c>dec f>dec | F>dc>B A3 :|
% - - - - - - - - - - - - - - - - - - - - - - - - -
%%begintext align
%% Cast off 2 Cu: .| up again :| lead down the
%% middle :|. up again & cast off :|: turn Corners :||
%% lead outsides :||:
%%endtext
% - - - - - - - - - - - - - - - - - - - - - - - - -

%%sep 1 1 500
%%sep 1 1 500
